X:1
T:Will There Be Light for Me?
T:Will There Be Light for Me?
T:Hart Pease Danks
T:E. S. Roberts, 1899
T:Public Domain Courtesy of the Cyber Hymnal™
T:Public Domain Courtesy of the Cyber Hymnal™
C:Hart Pease Danks
Z:Public Domain
Z:Courtesy of the Cyber Hymnal™
%%score ( 1 2 ) ( 3 4 )
L:1/8
Q:1/4=112
M:3/4
K:C
V:1 treble 
V:2 treble 
V:3 bass 
V:4 bass 
V:1
 E2 C2 D2 | E4 (E>E) | G4 F2 | F4 FF | E4 (C>C) | (E2 D2) C2 | B,6- | B,4 B,2 | (B,2 C2) D2 | %9
w: 1.~Will there be|light at *|e- ven-|tide, When my|bark un- *|moors * for|sea?|* Will|faith’s * bright|
w: 2.~When I draw|near the *|o- ther|shore, Will there|be a *|shin- * ing|band|* Of|those * I|
w: 3.~On yon- der|shore are *|the gol-|den gates That|lead to *|the * ci-|ty|* fair;|Where * Je-|
 (D2 C2) B,2 | (C2 D2) ^D2 | E4 E2 | D2 G2 A2 | (B2 A2) D2 | G6- x4 | G6 x4 || %16
w: ray * il-|lume * the|way? O|will there be|light * for|me?||
w: knew * and|loved * on|earth, A-|wait- ing me|on * the|strand?||
w: sus * stands,|with * out-|stretched hands,|To bid me|wel- * come|there.||
"^Refrain" [EG]2 [CE]2 [Ec]2 | [FB]6- | [FB]4 [DF]2 | [DF]2 [^CE]2 [DF]2 | ([^DA]6 | [EG]4) [EG]2 | %22
w: Will there be|light?|* O|will there be|light?|* O|
w: Will there be|light?|* O|will there be|light?|* O|
w: There will be|light,|* O|there will be|light,|* O|
 [DG]2 D2 [DG]2 | [DB]4 [CA]2 | G6- | G6 | [CE]2 [DF]2 [^D^F]2 | [EG]4 [Ee]2 | (e2 B2) [Ed]2 | %29
w: will there be|light for|me,||me? Will there|be light|at * e-|
w: will there be|light for|me,||me? Will there|be light|of * fac-|
w: there will be|light for|me,||me. He is|the light|of * glo-|
 [Ec]4 ([^Dc][Dc]) | ([Ec]2 [CE]2) [CA]2 | (A2 D2) [B,G]2 | C6 | [G,C]6 |] %34
w: ven- tide, *|When~my * bark|un- * moors|for||
w: es bright, *|On~the * banks~of|the * crys-|tal||
w: ry bright, *|That * shone|on * Cal-|va-||
V:2
 x6 | x6 | x6 | x6 | x6 | x6 | x6 | x6 | x6 | x6 | x6 | x6 | x6 | C6 | B,4 C2 x4 | (D2 F2 E2) x4 || %16
w: ||||||||||||||||
w: ||||||||||||||||
w: ||||||||||||||||
 x6 | x6 | x6 | x6 | x6 | x6 | x2 D2 x2 | x6 | B,4 C2 | (D2 F2 E2) | x6 | x6 | E4 x2 | x6 | x6 | %31
w: |||||||||for * *||||||
w: |||||||||for * *||||||
w: |||||||||for * *||||||
 B,4 x2 | C4 A,2 | x6 |] %34
w: |||
w: |||
w: |||
V:3
 G,2 E,2 F,2 | G,4 (C>C) | B,4 A,2 | A,4 A,A, | G,4 (E,>E,) | G,2 F,2 E,2 | [G,,D,]6- | %7
 [G,,D,]4 [G,,-D,]2 | (D,2 E,2) F,2 | (F,2 E,2) D,2 | (E,2 F,2) ^F,2 | G,2 A,2 [C,^A,]2 | %12
 B,2 B,2 G,2 | ^F,4 F,2 | G,6- D,2 E,2 | G,6 (A,2 G,2) || z6 | ([G,D]2 [G,D]2 [G,D]2 | [G,D]4) z2 | %19
 z6 | ([C,^F,]2 [C,F,]2 [C,F,]2 | G,2 A,2) [^C,^A,]2 | [D,B,]2 [D,B,]2 [D,B,]2 | %23
 (G,2 ^F,2) [D,F,]2 | (G,2 D,2) E,2 | (F,2 A,2 G,2) | [C,G,]2 [C,G,]2 [C,A,]2 | (G,2 C2) [C,G,]2 | %28
 [E,^G,]4 [G,B,]2 | A,4 ([^F,A,][F,A,]) | G,2 G,2 [D,^F,]2 | [G,,F,]4 [G,,F,]2 | E,4 F,2 | %33
 [C,E,]6 |] %34
V:4
 C,6- | C,6- | C,6- | C,6- | C,6- | C,6 | x6 | x6 | G,,6 | G,,6 | C,6- | C,4 x2 | D,6- | D,6 | %14
 G,,2- G,,4- x4 | ([G,,-F,]2 G,,4) x4 || x6 | x6 | x6 | x6 | x6 | ^C,4 x2 | x6 | D,4 x2 | G,,6- | %25
 G,,6 | x6 | C,4 x2 | x6 | A,4 x2 | (G,2 G,2) x2 | x6 | C,6- | x6 |] %34

